Newaita/actions/24/media-playback-stop.svg

<svg height="24" viewBox="0 0 24 24" width="24" xmlns="http://www.w3.org/2000/svg"><path d="m3.96875 3.164062h15.875c.550781 0 .996094.445313.996094.992188v15.875c0 .550781-.445313.996094-.996094.996094h-15.875c-.546875 0-.992188-.445313-.992188-.996094v-15.875c0-.546875.445313-.992188.992188-.992188zm0 0" fill="#424242"/></svg>

<svg xmlns="http://www.w3.org/2000/svg" xmlns:xlink="http://www.w3.org/1999/xlink" width="24px" height="24px" viewBox="0 0 24 24" version="1.1">
<g id="surface1">
     <defs>
  <style id="current-color-scheme" type="text/css">
   .ColorScheme-Text { color:#424242; } .ColorScheme-Highlight { color:#eeeeee; }
  </style>
 </defs>
<path style="fill:currentColor" class="ColorScheme-Text" d="M 3.96875 3.164062 L 19.84375 3.164062 C 20.394531 3.164062 20.839844 3.609375 20.839844 4.15625 L 20.839844 20.03125 C 20.839844 20.582031 20.394531 21.027344 19.84375 21.027344 L 3.96875 21.027344 C 3.421875 21.027344 2.976562 20.582031 2.976562 20.03125 L 2.976562 4.15625 C 2.976562 3.609375 3.421875 3.164062 3.96875 3.164062 Z M 3.96875 3.164062 "/>
</g>
</svg>
